raw/symbols/mnt.svg

<svg width="36" height="36" viewBox="0 0 36 36" fill="none" xmlns="http://www.w3.org/2000/svg">
<rect width="36" height="36" rx="18" fill="#F3F3F3"/>
<path fill-rule="evenodd" clip-rule="evenodd" d="M19.4152 27.3236L20.1201 32.0172C19.4234 32.1288 18.7103 32.1855 17.9999 32.1855H17.989V22.6102H17.9999C18.3903 22.6102 18.7761 22.5582 19.1482 22.4561L20.3459 27.1222C20.0397 27.2064 19.7288 27.2726 19.4161 27.3236H19.4152ZM15.7681 21.9917L13.4641 26.0971H13.4632C13.1916 25.9334 12.9265 25.7566 12.6733 25.5655L9.92216 29.4647C10.5009 29.9017 11.1172 30.2941 11.7535 30.6317L13.8472 26.4044C14.2724 26.6285 14.713 26.8186 15.1665 26.9719L13.7421 31.4876C14.4232 31.7174 15.1272 31.8933 15.8358 32.0097L16.5681 27.2423C16.2582 27.1912 15.9501 27.1212 15.6465 27.0371L16.8388 22.4532C16.4648 22.3492 16.1045 22.1931 15.7681 21.9917ZM5.77139 24.4278L9.93047 22.2375C9.71652 21.8025 9.53463 21.3466 9.38924 20.8823L4.94853 22.368C5.16887 23.0734 5.4459 23.7667 5.77139 24.4278ZM25.8254 22.6963L21.8574 20.3112C22.053 19.9632 22.203 19.5906 22.3036 19.2038L26.7351 20.4388C26.8165 20.1249 26.8841 19.8061 26.9335 19.4865L31.5424 20.2459C31.43 20.9788 31.2599 21.707 31.0368 22.4116L26.672 20.9353C26.5239 21.4044 26.3401 21.8603 26.1225 22.3L30.2085 24.4685C29.882 25.1268 29.5026 25.7632 29.0793 26.3619L25.3107 23.5144C25.4953 23.2523 25.6672 22.9781 25.8245 22.6972L25.8254 22.6963ZM24.2067 30.6527L24.2071 30.6525V30.6535L24.2067 30.6527ZM22.2148 31.5027C22.8967 31.2748 23.5668 30.9893 24.2067 30.6527L22.0923 26.3496C21.6708 26.5708 21.2301 26.759 20.7812 26.9085L22.2148 31.5027ZM22.5503 26.1811L20.2197 21.9982C20.5571 21.7968 20.868 21.5509 21.145 21.2653L27.6803 28.048C27.1738 28.5709 26.6225 29.0561 26.0438 29.4902L23.3485 25.6459C23.0916 25.8388 22.8255 26.0175 22.5503 26.1811ZM14.1362 20.2988L10.0932 22.7114H10.0923C10.2514 22.9951 10.4242 23.2703 10.6107 23.536L6.89502 26.3258C7.31561 26.9245 7.7846 27.4938 8.29023 28.0177L14.8457 21.2559C14.5696 20.9693 14.3309 20.6478 14.1362 20.2988ZM9.18256 20.4312L13.6928 19.1894H13.6918C13.5931 18.8045 13.5428 18.4045 13.5428 17.9997H4.28564C4.28564 18.7364 4.34142 19.4769 4.45022 20.2004L8.98786 19.4693C9.03627 19.7927 9.10117 20.1144 9.18256 20.4312ZM26.0695 13.7622L30.2285 11.5719C30.554 12.233 30.831 12.9261 31.0514 13.6317L26.6107 15.1174C26.4653 14.653 26.2833 14.1972 26.0695 13.7622ZM20.2317 14.008L22.5357 9.90258L22.5366 9.90165C22.8082 10.0653 23.0733 10.2421 23.3265 10.4332L26.0776 6.53398C25.4989 6.09709 24.8826 5.70462 24.2463 5.36695L22.1526 9.5943C21.7274 9.37019 21.2868 9.18012 20.8333 9.02687L22.2577 4.51108C21.5766 4.28132 20.8726 4.10543 20.164 3.98907L19.4317 8.75734C19.7416 8.80842 20.0497 8.87842 20.3533 8.9626L19.161 13.5464C19.535 13.6505 19.8952 13.8065 20.2317 14.008ZM10.1746 13.3034L14.1426 15.6885C13.9469 16.0365 13.797 16.4092 13.6964 16.796L9.26484 15.5608C9.18346 15.8748 9.11586 16.1935 9.06647 16.5132L4.45663 15.7538C4.56909 15.0208 4.73915 14.2926 4.96222 13.5881L9.32704 15.0643C9.47513 14.5953 9.65889 14.1395 9.87652 13.6997L5.79057 11.5311C6.11697 10.8729 6.4964 10.2365 6.91972 9.63786L10.6884 12.4854C10.5037 12.7473 10.3319 13.0216 10.1746 13.3025V13.3034ZM11.7931 5.34696L11.7928 5.34718V5.34625L11.7931 5.34696ZM11.7931 5.34696C12.4331 5.01037 13.1031 4.72487 13.785 4.49697L15.2186 9.09128C14.7697 9.24073 14.329 9.42887 13.9075 9.65018L11.7931 5.34696ZM13.4495 9.81855L13.4497 9.8189L13.4504 9.81855H13.4495ZM13.4497 9.8189L15.78 14.0014C15.4427 14.2029 15.1318 14.4487 14.8547 14.7343L8.32036 7.95169C8.82689 7.42868 9.37816 6.94357 9.95693 6.50948L12.6522 10.3538C12.909 10.161 13.1747 9.9824 13.4497 9.8189ZM21.8646 15.7009L25.9076 13.2884V13.2875C25.7485 13.0037 25.5757 12.7285 25.3892 12.4627L29.1049 9.67289C28.6843 9.0743 28.2153 8.50493 27.7096 7.98107L21.1552 14.7439C21.4312 15.0304 21.6699 15.3519 21.8646 15.7009ZM16.8516 13.5437V13.5434L16.8507 13.5437H16.8516ZM16.8516 13.5434L15.6538 8.87749C15.9601 8.7933 16.271 8.7271 16.5837 8.67602L15.8788 3.98248C16.5755 3.87086 17.2886 3.81412 17.999 3.81412H18.01V13.3895H17.999C17.6089 13.3895 17.2234 13.4414 16.8516 13.5434ZM22.3081 16.8102C22.4067 17.1948 22.457 17.5945 22.4571 17.9989H31.7142C31.7142 17.2622 31.6585 16.5217 31.5496 15.7983L27.013 16.5303C26.9645 16.2068 26.8996 15.8852 26.8182 15.5684L22.3081 16.8102Z" fill="#030303"/>
</svg>

<svg xmlns="http://www.w3.org/2000/svg" width="36" height="36" fill="none"><rect width="36" height="36" fill="#F3F3F3" rx="18"/><path fill="#030303" fill-rule="evenodd" d="m19.415 27.324.705 4.693c-.697.112-1.41.168-2.12.168h-.011V22.61h.01c.391 0 .777-.052 1.15-.154l1.197 4.666c-.306.084-.617.15-.93.202Zm-3.647-5.332-2.304 4.105a9.162 9.162 0 0 1-.79-.532l-2.752 3.9c.579.437 1.195.83 1.832 1.167l2.093-4.228c.425.224.866.415 1.32.568l-1.425 4.516c.681.23 1.385.405 2.094.522l.732-4.768a8.855 8.855 0 0 1-.922-.205l1.193-4.584a4.363 4.363 0 0 1-1.07-.461Zm-9.997 2.436 4.16-2.19a9.537 9.537 0 0 1-.542-1.356l-4.44 1.486c.22.705.497 1.399.822 2.06Zm20.054-1.732-3.968-2.385a4.65 4.65 0 0 0 .447-1.107l4.431 1.235c.082-.314.15-.633.198-.953l4.61.76a14.453 14.453 0 0 1-.506 2.166l-4.365-1.477c-.148.47-.332.925-.55 1.365l4.087 2.168a14.274 14.274 0 0 1-1.13 1.894l-3.768-2.848c.184-.262.356-.536.514-.817Zm-1.618 7.957Zm-1.992.85a13.446 13.446 0 0 0 1.992-.85l-2.115-4.303c-.421.22-.862.409-1.31.558l1.433 4.595Zm.335-5.322-2.33-4.183c.337-.201.648-.447.925-.733l6.535 6.783a13.89 13.89 0 0 1-1.636 1.442l-2.695-3.844a8.923 8.923 0 0 1-.799.535ZM14.136 20.3l-4.043 2.412c.158.284.331.56.518.825l-3.716 2.79c.42.598.89 1.168 1.395 1.692l6.556-6.762a4.633 4.633 0 0 1-.71-.957Zm-4.953.132 4.51-1.242h-.001a4.791 4.791 0 0 1-.15-1.19H4.287c0 .737.055 1.478.164 2.201l4.538-.73c.048.323.113.644.195.961Zm16.887-6.669 4.159-2.19c.325.661.602 1.354.822 2.06l-4.44 1.485a9.551 9.551 0 0 0-.541-1.355Zm-5.838.246 2.304-4.105v-.001c.272.163.537.34.79.531l2.752-3.899a13.734 13.734 0 0 0-1.832-1.167l-2.093 4.227a9.028 9.028 0 0 0-1.32-.567l1.425-4.516a13.323 13.323 0 0 0-2.094-.522l-.732 4.768c.31.051.618.121.921.206l-1.192 4.583c.374.104.734.26 1.07.462Zm-10.057-.705 3.968 2.385c-.196.348-.346.721-.447 1.108l-4.431-1.235a9.719 9.719 0 0 0-.199.952l-4.61-.76c.113-.732.283-1.46.506-2.165l4.365 1.476a9.58 9.58 0 0 1 .55-1.364L5.79 11.53c.326-.658.705-1.295 1.129-1.893l3.768 2.847a9.33 9.33 0 0 0-.513.818Zm1.618-7.956Zm0 0c.64-.337 1.31-.622 1.992-.85l1.434 4.594c-.45.15-.89.338-1.311.56l-2.115-4.304Zm1.657 4.472Zm0 0L15.78 14a4.515 4.515 0 0 0-.925.733L8.32 7.952a13.877 13.877 0 0 1 1.637-1.443l2.695 3.845c.257-.193.523-.372.798-.535Zm8.415 5.882 4.043-2.413a9.658 9.658 0 0 0-.519-.825l3.716-2.79c-.42-.599-.89-1.168-1.395-1.692l-6.555 6.763c.276.286.515.608.71.957Zm-5.013-2.157h-.001Zm0 0-1.198-4.667c.306-.084.617-.15.93-.201l-.705-4.694c.697-.111 1.41-.168 2.12-.168h.011v9.575h-.011c-.39 0-.776.052-1.147.154Zm5.456 3.266c.099.385.149.785.15 1.189h9.256c0-.737-.055-1.477-.164-2.2l-4.537.731a9.569 9.569 0 0 0-.195-.962l-4.51 1.242Z" clip-rule="evenodd"/></svg>
